assets/icons/24px/outline/chip-24px.svg

<svg width="24" height="24" viewBox="0 0 24 24" fill="none" xmlns="http://www.w3.org/2000/svg">
<path d="M9.5 5.5V5.5C7.61438 5.5 6.67157 5.5 6.08579 6.08579C5.5 6.67157 5.5 7.61438 5.5 9.5V9.5M9.5 5.5V3M9.5 5.5H14.5M14.5 5.5V5.5C16.3856 5.5 17.3284 5.5 17.9142 6.08579C18.5 6.67157 18.5 7.61438 18.5 9.5V9.5M14.5 5.5V3M18.5 9.5H21M18.5 9.5V14.5M18.5 14.5V14.5C18.5 16.3856 18.5 17.3284 17.9142 17.9142C17.3284 18.5 16.3856 18.5 14.5 18.5V18.5M18.5 14.5H21M14.5 18.5V21M14.5 18.5H9.5M9.5 18.5V18.5C7.61438 18.5 6.67157 18.5 6.08579 17.9142C5.5 17.3284 5.5 16.3856 5.5 14.5V14.5M9.5 18.5V21M5.5 14.5H3M5.5 14.5V9.5M5.5 9.5H3M14.5 10.5V13.5C14.5 13.9714 14.5 14.2071 14.3536 14.3536C14.2071 14.5 13.9714 14.5 13.5 14.5H10.5C10.0286 14.5 9.79289 14.5 9.64645 14.3536C9.5 14.2071 9.5 13.9714 9.5 13.5V10.5C9.5 10.0286 9.5 9.79289 9.64645 9.64645C9.79289 9.5 10.0286 9.5 10.5 9.5H13.5C13.9714 9.5 14.2071 9.5 14.3536 9.64645C14.5 9.79289 14.5 10.0286 14.5 10.5Z" stroke="white" stroke-width="2" stroke-linecap="round" stroke-linejoin="round"/>
</svg>

<svg width="24" height="24" fill="none" xmlns="http://www.w3.org/2000/svg"><path d="M9.5 5.5c-1.886 0-2.828 0-3.414.586C5.5 6.672 5.5 7.614 5.5 9.5m4-4V3m0 2.5h5m0 0c1.886 0 2.828 0 3.414.586.586.586.586 1.528.586 3.414m-4-4V3m4 6.5H21m-2.5 0v5m0 0c0 1.886 0 2.828-.586 3.414-.586.586-1.528.586-3.414.586m4-4H21m-6.5 4V21m0-2.5h-5m0 0c-1.886 0-2.828 0-3.414-.586C5.5 17.328 5.5 16.386 5.5 14.5m4 4V21m-4-6.5H3m2.5 0v-5m0 0H3m11.5 1v3c0 .471 0 .707-.146.854-.147.146-.383.146-.854.146h-3c-.471 0-.707 0-.854-.146-.146-.147-.146-.383-.146-.854v-3c0-.471 0-.707.146-.854.147-.146.383-.146.854-.146h3c.471 0 .707 0 .854.146.146.147.146.383.146.854z" stroke="#fff" stroke-width="2" stroke-linecap="round" stroke-linejoin="round"/></svg>
